X: 1
T:Title
C:Composer
Q:1/4=120
M:4/4
L:1/4
V:1
V:2
K:C
% abc lyrics by nico2020
V:1
C C C C| D D D D | E E E E | F F F F |
w: do do do do re re re re mi mi mi mi fa fa fa fa
V:2
G G G G | A A A A | B B B B | C C C C|
w: so so so so la la la la ti ti ti ti do do do do
V:1
C C C C| D D D D | E E E E | F F F F |
w: do do do do re re re re mi mi mi mi fa fa fa fa
V:2
G G G G | A A A A | B B B B | C C C C|
w: so so so so la la la la ti ti ti ti do do do do
